X: 24
T:John Peel
% Nottingham Music Database
S:Kevin Briggs
M:4/4
L:1/8
R:Hornpipe
K:A
cd|"A"e2e2 c2cd|"A"e2e2 c2Bc|"E7"d2d2 B2Bc|"E7"d2d2 B2cB|
"A"A2A2 a3a|"D"g2f2 "A"e2dc|"D"f2dB "A"A2GA|"E7"B4 "A"A2:|


